src/svg/12/online_mobile_12.svg

<?xml version="1.0" encoding="UTF-8"?>
<svg width="8px" height="12px" viewBox="0 0 8 12" version="1.1" xmlns="http://www.w3.org/2000/svg" xmlns:xlink="http://www.w3.org/1999/xlink">
    <!-- Generator: Sketch 50.2 (55047) - http://www.bohemiancoding.com/sketch -->
    <title>online_mobile_12</title>
    <desc>Created with Sketch.</desc>
    <defs></defs>
    <g id="Page-2" stroke="none" stroke-width="1" fill="none" fill-rule="evenodd">
        <g id="online_mobile_12" fill="currentColor">
            <path d="M2.01,0 L5.99,0 C7.10009235,-2.03920656e-16 8,0.899907653 8,2.01 L8,9.99 C8,11.1000923 7.10009235,12 5.99,12 L2.01,12 C0.899907653,12 1.35947104e-16,11.1000923 0,9.99 L0,2.01 C-1.35947104e-16,0.899907653 0.899907653,2.03920656e-16 2.01,0 Z M2.0025,3 C1.72497691,3 1.5,3.22497691 1.5,3.5025 L1.5,8.4975 C1.5,8.77502309 1.72497691,9 2.0025,9 L5.9975,9 C6.27502309,9 6.5,8.77502309 6.5,8.4975 L6.5,3.5025 C6.5,3.22497691 6.27502309,3 5.9975,3 L2.0025,3 Z" id="Mask"></path>
        </g>
    </g>
</svg>

<svg xmlns="http://www.w3.org/2000/svg" width="8" height="12" fill="none" viewBox="0 0 8 12"><path fill="currentColor" d="M5.99 0C7.1 0 8 .9 8 2.01v7.98C8 11.1001 7.1 12 5.99 12H2.01C.9 12 0 11.1001 0 9.99V2.01C0 .9.9 0 2.01 0h3.98Zm.0075 3h-3.995a.5025.5025 0 0 0-.5025.5025v4.995c0 .2775.225.5025.5025.5025h3.995A.5025.5025 0 0 0 6.5 8.4975v-4.995A.5025.5025 0 0 0 5.9975 3Z"/></svg>
